X:3507
T:Lakes of Sligo, The
O:england
M:2/4
L:1/16
Q:137
R:Polka
D:Chris Droney "The Flowing Tide"
K:D
F2A2 A2Bc|d2e2 d2c2|B2A2 Bcde|d2e2 f4|
F2A2 A2Bc|d2e2 fafe|d2B2 A2f2|e2fe d4:|
:f2a2 d3e|f2a2 a2gf|g2b2 e3f|g2fe b2a2|
f2a2 efge|d2e2 fafe|d2B2 A2f2|e2fe d4:|
